X: 1
T: MacLaine Of Loch Buie
M: 4/4
L: 1/8
R: reel
K: Amix
|:e2 de A2 AB|g2 fe dGBd|e2 ce aeef|g2 dB A2 AB:|
|:A2 ag aeef|gage gddg|eaag edea|gedB A2 AB|
A2 ag aeef|gage gddg|eagf edea|gedB eAAB:|
